icons/1_Primary/Fandom.svg

<svg width="1024" height="1024" fill="none" xmlns="http://www.w3.org/2000/svg"><g clip-path="url(#a)"><path d="M512 1024c282.77 0 512-229.23 512-512S794.77 0 512 0 0 229.23 0 512s229.23 512 512 512Z" fill="#FF837D"/><path d="M417.8 224c-5.7-.3-10.5 4.1-10.8 9.8v234.4L322.8 384c-4-4-10.5-4-14.5 0-.5.5-.9 1-1.3 1.6-1.1 1.7-1.7 3.7-1.7 5.7v241.6c0 7.5 1.5 15 4.4 22 2.9 7 7.1 13.3 12.5 18.6l109.6 109.7c10.8 10.8 25.4 16.8 40.6 16.9h80.2c15.2 0 29.8-6.1 40.6-16.8l109.5-109.7a57.382 57.382 0 0 0 16.8-40.6v-87c0-7.6-1.5-15-4.4-22-2.9-7-7.1-13.3-12.5-18.7L424.5 227c-1.8-1.8-4.2-2.9-6.7-3Zm151.1 300.2c4.6 0 9 1.8 12.2 5.1l31.7 31.7c3.2 3.2 5.1 7.6 5.1 12.2V607c0 4.6-1.8 8.9-5 12.2L524.6 708c-4.9 5-12.4 6.5-18.8 3.8-2.1-.9-4-2.2-5.6-3.8l-88-88.8c-3.2-3.2-5-7.6-5-12.1v-33.8c0-2.3.5-4.5 1.3-6.6.9-2.1 2.1-4 3.7-5.6l31.7-31.7c1.6-1.6 3.5-2.9 5.6-3.7 4.2-1.8 9-1.8 13.2 0 2.1.9 4 2.1 5.6 3.7l44.3 44.4 44.3-44.4c3-3.4 7.4-5.2 12-5.2Z" fill="#fff"/></g><defs><clipPath id="a"><path fill="#fff" d="M0 0h1024v1024H0z"/></clipPath></defs></svg>

<svg width="1024" height="1024" viewBox="0 0 1024 1024" fill="none" xmlns="http://www.w3.org/2000/svg">
<g clip-path="url(#clip0_2_2154)">
<path d="M512 1024C794.77 1024 1024 794.77 1024 512C1024 229.23 794.77 0 512 0C229.23 0 0 229.23 0 512C0 794.77 229.23 1024 512 1024Z" fill="#FF837D"/>
<path d="M417.8 224C412.1 223.7 407.3 228.1 407 233.8V468.2L322.8 384C318.8 380 312.3 380 308.3 384C307.8 384.5 307.4 385 307 385.6C305.9 387.3 305.3 389.3 305.3 391.3V632.9C305.3 640.4 306.8 647.9 309.7 654.9C312.6 661.9 316.8 668.2 322.2 673.5L431.8 783.2C442.6 794 457.2 800 472.4 800.1H552.6C567.8 800.1 582.4 794 593.2 783.3L702.7 673.6C708.03 668.268 712.258 661.938 715.141 654.972C718.023 648.005 719.505 640.539 719.5 633V546C719.5 538.4 718 531 715.1 524C712.2 517 708 510.7 702.6 505.3L424.5 227C422.7 225.2 420.3 224.1 417.8 224ZM568.9 524.2C573.5 524.2 577.9 526 581.1 529.3L612.8 561C616 564.2 617.9 568.6 617.9 573.2V607C617.9 611.6 616.1 615.9 612.9 619.2L524.6 708C519.7 713 512.2 714.5 505.8 711.8C503.7 710.9 501.8 709.6 500.2 708L412.2 619.2C409 616 407.2 611.6 407.2 607.1V573.3C407.2 571 407.7 568.8 408.5 566.7C409.4 564.6 410.6 562.7 412.2 561.1L443.9 529.4C445.5 527.8 447.4 526.5 449.5 525.7C453.7 523.9 458.5 523.9 462.7 525.7C464.8 526.6 466.7 527.8 468.3 529.4L512.6 573.8L556.9 529.4C559.9 526 564.3 524.2 568.9 524.2Z" fill="white"/>
</g>
<defs>
<clipPath id="clip0_2_2154">
<rect width="1024" height="1024" fill="white"/>
</clipPath>
</defs>
</svg>
